packages/core/src/svgs/tokens/mono/DWEB.svg

<svg width="24" height="24" viewBox="0 0 24 24" fill="none" xmlns="http://www.w3.org/2000/svg">
<path d="M2.58823 10.8235C2.78235 9.17646 3.31176 7.98235 4.24116 6.70588H4.94116C3.94598 7.86885 3.32119 9.30283 3.14705 10.8235H2.58823ZM7.46469 4.35293H6.41175C7.72595 3.43662 9.23723 2.8422 10.8235 2.61765V3.17647C9.64185 3.36187 8.50378 3.76051 7.46469 4.35293ZM20.853 10.8235C20.6412 9.15292 20.2412 7.95293 19.2412 6.70588H19.9412C20.8705 7.98235 21.2176 9.17646 21.4117 10.8235H20.853ZM16.5353 4.35293H17.5882C16.2761 3.42755 14.7649 2.82309 13.1764 2.58823V3.14705C14.3235 3.28823 15.5647 3.81764 16.5353 4.35293ZM6.41175 19.647C7.72398 20.5724 9.23508 21.1769 10.8235 21.4117V20.853C9.64021 20.6574 8.50217 20.2488 7.46469 19.647H6.41175ZM4.24116 17.2941H4.94116C3.9364 16.1089 3.30226 14.6545 3.11764 13.1118H2.55293C2.74705 14.7588 3.31176 16.0176 4.24116 17.2941ZM16.5353 19.647C15.5647 20.1823 14.3235 20.7058 13.1764 20.853V21.4117C14.7411 21.2295 16.3529 20.4999 17.5882 19.647H16.5353ZM19.0588 17.2941H19.7588C20.6807 16.1012 21.2529 14.6757 21.4117 13.1764H20.853C20.6788 14.6972 20.054 16.1311 19.0588 17.2941ZM5.5294 4.94116H6.70588V6.11764H5.5294V4.94116ZM17.2941 4.94116H18.4706V6.11764H17.2941V4.94116ZM5.5294 17.8824H6.70588V19.0588H5.5294V17.8824ZM2 11.4118H3.17647V12.5882H2V11.4118ZM20.8235 11.4118H22V12.5882H20.8235V11.4118ZM11.4118 22V20.8235H12.5882V22H11.4118ZM11.4118 3.17647V2H12.5882V3.17647H11.4118ZM17.2941 17.8824H18.4706V19.0588H17.2941V17.8824ZM12.6588 8.47058L13.7647 8.84705L11.3412 15.5294L10.2353 15.1529L12.6588 8.47058ZM8.92352 9.64707L6.11764 12L8.92352 14.353L9.64707 13.3529L7.97058 12L9.64707 10.6471L8.92352 9.64707ZM15.0765 9.64707L17.8824 12L15.0765 14.353L14.353 13.3529L16.0294 12L14.353 10.6471L15.0765 9.64707Z" fill="white"/>
</svg>

<svg xmlns="http://www.w3.org/2000/svg" width="24" height="24" fill="none" viewBox="0 0 24 24">
    <path fill="#fff" d="M2.588 10.824c.194-1.648.724-2.842 1.653-4.118h.7a7.7 7.7 0 0 0-1.794 4.117zm4.877-6.471H6.412a10.2 10.2 0 0 1 4.411-1.735v.558a9.9 9.9 0 0 0-3.358 1.177m13.388 6.47c-.212-1.67-.612-2.87-1.612-4.117h.7c.93 1.276 1.277 2.47 1.47 4.117zm-4.318-6.47h1.053a10.26 10.26 0 0 0-4.412-1.765v.559c1.147.141 2.389.67 3.36 1.206M6.412 19.647a10.26 10.26 0 0 0 4.411 1.765v-.559a9.9 9.9 0 0 1-3.358-1.206zm-2.17-2.353h.7a7.9 7.9 0 0 1-1.824-4.182h-.565c.194 1.647.759 2.906 1.688 4.182m12.293 2.353c-.97.535-2.212 1.059-3.359 1.206v.559c1.565-.182 3.177-.912 4.412-1.765zm2.524-2.353h.7a8.14 8.14 0 0 0 1.653-4.118h-.559a7.7 7.7 0 0 1-1.794 4.118M5.529 4.941h1.177v1.177H5.529zm11.765 0h1.177v1.177h-1.177zM5.53 17.882h1.177v1.177H5.529zM2 11.412h1.176v1.176H2zm18.824 0H22v1.176h-1.177zM11.411 22v-1.177h1.176V22zm0-18.824V2h1.176v1.176zm5.882 14.706h1.177v1.177h-1.177zM12.66 8.471l1.106.376-2.424 6.682-1.106-.376zM8.924 9.647 6.118 12l2.806 2.353.723-1L7.971 12l1.676-1.353zm6.153 0L17.882 12l-2.806 2.353-.723-1L16.029 12l-1.676-1.353z"/>
</svg>
